dist/assets/images/index/list-7.svg

<svg width="53" height="53" viewBox="0 0 53 53" fill="none" xmlns="http://www.w3.org/2000/svg">
<circle cx="26.5" cy="26.5" r="26.5" fill="white"/>
<rect x="27.9263" y="8.31251" width="6.87518" height="0.625017" stroke="#DF0112" stroke-width="0.625017"/>
<rect x="15.4258" y="11.0625" width="6.87518" height="0.625017" stroke="#0000FF" stroke-width="0.625017"/>
<mask id="path-4-inside-1" fill="white">
<path fill-rule="evenodd" clip-rule="evenodd" d="M21.3626 10.75H16.3625V22.8335C12.329 23.9313 9.36328 27.6198 9.36328 32.0011C9.36328 37.2479 13.6167 41.5013 18.8635 41.5013V40.0013C14.4451 40.0013 10.8633 36.4195 10.8633 32.0011C10.8633 27.5827 14.4451 24.0008 18.8635 24.0008C20.5643 24.0008 22.139 24.5307 23.4346 25.4344L24.2927 24.2041C23.4132 23.5906 22.4248 23.1221 21.3626 22.8332V10.75Z"/>
</mask>
<path d="M16.3625 10.75V9.25H14.8625V10.75H16.3625ZM21.3626 10.75H22.8626V9.25H21.3626V10.75ZM16.3625 22.8335L16.7564 24.2808L17.8625 23.9798V22.8335H16.3625ZM18.8635 41.5013V43.0013H20.3635V41.5013H18.8635ZM18.8635 40.0013H20.3635V38.5013H18.8635V40.0013ZM23.4346 25.4344L22.5764 26.6647L23.8067 27.5228L24.6649 26.2925L23.4346 25.4344ZM24.2927 24.2041L25.523 25.0622L26.3811 23.832L25.1509 22.9738L24.2927 24.2041ZM21.3626 22.8332H19.8626V23.9796L20.9689 24.2806L21.3626 22.8332ZM16.3625 12.25H21.3626V9.25H16.3625V12.25ZM17.8625 22.8335V10.75H14.8625V22.8335H17.8625ZM10.8633 32.0011C10.8633 28.3137 13.3592 25.2055 16.7564 24.2808L15.9686 21.3861C11.2989 22.6571 7.86328 26.926 7.86328 32.0011H10.8633ZM18.8635 40.0013C14.4451 40.0013 10.8633 36.4195 10.8633 32.0011H7.86328C7.86328 38.0763 12.7883 43.0013 18.8635 43.0013V40.0013ZM17.3635 40.0013V41.5013H20.3635V40.0013H17.3635ZM9.36328 32.0011C9.36328 37.2479 13.6167 41.5013 18.8635 41.5013V38.5013C15.2735 38.5013 12.3633 35.5911 12.3633 32.0011H9.36328ZM18.8635 22.5008C13.6167 22.5008 9.36328 26.7542 9.36328 32.0011H12.3633C12.3633 28.4111 15.2735 25.5008 18.8635 25.5008V22.5008ZM24.2927 24.2041C22.7536 23.1305 20.8809 22.5008 18.8635 22.5008V25.5008C20.2476 25.5008 21.5245 25.9309 22.5764 26.6647L24.2927 24.2041ZM23.0624 23.346L22.2043 24.5762L24.6649 26.2925L25.523 25.0622L23.0624 23.346ZM20.9689 24.2806C21.8619 24.5235 22.6936 24.9176 23.4346 25.4344L25.1509 22.9738C24.1328 22.2637 22.9877 21.7207 21.7563 21.3857L20.9689 24.2806ZM19.8626 10.75V22.8332H22.8626V10.75H19.8626Z" fill="#0000FF" mask="url(#path-4-inside-1)"/>
<mask id="path-6-inside-2" fill="white">
<path fill-rule="evenodd" clip-rule="evenodd" d="M33.8632 8H28.863V19.2503L20.6956 36.752H42.0306L33.8632 19.2503V8ZM42.6132 38.0003V38.002H20.1128V41.7509H42.6134V38.0008L42.6132 38.0003Z"/>
</mask>
<path fill-rule="evenodd" clip-rule="evenodd" d="M33.8632 8H28.863V19.2503L20.6956 36.752H42.0306L33.8632 19.2503V8ZM42.6132 38.0003V38.002H20.1128V41.7509H42.6134V38.0008L42.6132 38.0003Z" fill="white"/>
<path d="M28.863 8V7H27.863V8H28.863ZM33.8632 8H34.8632V7H33.8632V8ZM28.863 19.2503L29.7692 19.6732L29.863 19.4722V19.2503H28.863ZM20.6956 36.752L19.7894 36.3291L19.1254 37.752H20.6956V36.752ZM42.0306 36.752V37.752H43.6008L42.9368 36.3291L42.0306 36.752ZM33.8632 19.2503H32.8632V19.4722L32.957 19.6732L33.8632 19.2503ZM42.6132 38.0003L43.5191 37.5769L41.6132 38.0003H42.6132ZM42.6132 38.002V39.002H43.6132V38.002H42.6132ZM20.1128 38.002V37.002H19.1128V38.002H20.1128ZM20.1128 41.7509H19.1128V42.7509H20.1128V41.7509ZM42.6134 41.7509V42.7509H43.6134V41.7509H42.6134ZM42.6134 38.0008H43.6134V37.7786L43.5193 37.5774L42.6134 38.0008ZM28.863 9H33.8632V7H28.863V9ZM29.863 19.2503V8H27.863V19.2503H29.863ZM21.6018 37.1749L29.7692 19.6732L27.9568 18.8274L19.7894 36.3291L21.6018 37.1749ZM20.6956 37.752H42.0306V35.752H20.6956V37.752ZM32.957 19.6732L41.1244 37.1749L42.9368 36.3291L34.7693 18.8274L32.957 19.6732ZM32.8632 8V19.2503H34.8632V8H32.8632ZM41.6132 38.0003V38.002H43.6132V38.0003H41.6132ZM42.6132 37.002H20.1128V39.002H42.6132V37.002ZM21.1128 41.7509V38.002H19.1128V41.7509H21.1128ZM42.6134 40.7509H20.1128V42.7509H42.6134V40.7509ZM41.6134 38.0008V41.7509H43.6134V38.0008H41.6134ZM41.7072 38.4238L41.7075 38.4243L43.5193 37.5774L43.5191 37.5769L41.7072 38.4238Z" fill="#DF0112" mask="url(#path-6-inside-2)"/>
<mask id="path-8-inside-3" fill="white">
<path fill-rule="evenodd" clip-rule="evenodd" d="M33.8632 8H28.863V19.2503L20.6956 36.752H42.0306L33.8632 19.2503V8ZM42.6132 38.0003V38.002H20.1128V41.7509H42.6134V38.0008L42.6132 38.0003Z"/>
</mask>
<path fill-rule="evenodd" clip-rule="evenodd" d="M33.8632 8H28.863V19.2503L20.6956 36.752H42.0306L33.8632 19.2503V8ZM42.6132 38.0003V38.002H20.1128V41.7509H42.6134V38.0008L42.6132 38.0003Z" fill="white"/>
<path d="M28.863 8V6.5H27.363V8H28.863ZM33.8632 8H35.3632V6.5H33.8632V8ZM28.863 19.2503L30.2223 19.8846L30.363 19.5831V19.2503H28.863ZM20.6956 36.752L19.3363 36.1176L18.3403 38.252H20.6956V36.752ZM42.0306 36.752V38.252H44.3859L43.3899 36.1176L42.0306 36.752ZM33.8632 19.2503H32.3632V19.5831L32.5039 19.8846L33.8632 19.2503ZM42.6132 38.0003L43.972 37.3651L41.1132 38.0003H42.6132ZM42.6132 38.002V39.502H44.1132V38.002H42.6132ZM20.1128 38.002V36.502H18.6128V38.002H20.1128ZM20.1128 41.7509H18.6128V43.2509H20.1128V41.7509ZM42.6134 41.7509V43.2509H44.1134V41.7509H42.6134ZM42.6134 38.0008H44.1134V37.6675L43.9723 37.3656L42.6134 38.0008ZM28.863 9.5H33.8632V6.5H28.863V9.5ZM30.363 19.2503V8H27.363V19.2503H30.363ZM22.0549 37.3863L30.2223 19.8846L27.5038 18.616L19.3363 36.1176L22.0549 37.3863ZM20.6956 38.252H42.0306V35.252H20.6956V38.252ZM32.5039 19.8846L40.6713 37.3863L43.3899 36.1176L35.2224 18.616L32.5039 19.8846ZM32.3632 8V19.2503H35.3632V8H32.3632ZM41.1132 38.0003V38.002H44.1132V38.0003H41.1132ZM42.6132 36.502H20.1128V39.502H42.6132V36.502ZM21.6128 41.7509V38.002H18.6128V41.7509H21.6128ZM42.6134 40.2509H20.1128V43.2509H42.6134V40.2509ZM41.1134 38.0008V41.7509H44.1134V38.0008H41.1134ZM41.2543 38.6355L41.2545 38.636L43.9723 37.3656L43.972 37.3651L41.2543 38.6355Z" fill="#DF0112" mask="url(#path-8-inside-3)"/>
</svg>

<svg width="53" height="53" fill="none" xmlns="http://www.w3.org/2000/svg"><circle cx="26.5" cy="26.5" r="26.5" fill="#fff"/><path stroke="#DF0112" stroke-width=".625" d="M27.926 8.313h6.875v.625h-6.875z"/><path stroke="#00F" stroke-width=".625" d="M15.426 11.063h6.875v.625h-6.875z"/><mask id="a" fill="#fff"><path fill-rule="evenodd" clip-rule="evenodd" d="M21.363 10.75h-5v12.084c-4.034 1.097-7 4.786-7 9.167a9.5 9.5 0 009.5 9.5v-1.5a8 8 0 114.572-14.567l.858-1.23a9.46 9.46 0 00-2.93-1.37V10.75z"/></mask><path d="M16.363 10.75v-1.5h-1.5v1.5h1.5zm5 0h1.5v-1.5h-1.5v1.5zm-5 12.084l.393 1.447 1.107-.301v-1.146h-1.5zm2.5 18.667v1.5h1.5v-1.5h-1.5zm0-1.5h1.5v-1.5h-1.5v1.5zm4.572-14.567l-.859 1.23 1.23.859.859-1.23-1.23-.859zm.858-1.23l1.23.858.858-1.23-1.23-.858-.858 1.23zm-2.93-1.37h-1.5v1.146l1.106.3.394-1.447zm-5-10.584h5v-3h-5v3zm1.5 10.584V10.75h-3v12.084h3zm-7 9.167a8.004 8.004 0 015.893-7.72l-.787-2.895c-4.67 1.271-8.106 5.54-8.106 10.615h3zm8 8a8 8 0 01-8-8h-3c0 6.075 4.925 11 11 11v-3zm-1.5 0v1.5h3v-1.5h-3zm-8-8a9.5 9.5 0 009.5 9.5v-3a6.5 6.5 0 01-6.5-6.5h-3zm9.5-9.5a9.5 9.5 0 00-9.5 9.5h3a6.5 6.5 0 016.5-6.5v-3zm5.43 1.703a9.46 9.46 0 00-5.43-1.703v3a6.46 6.46 0 013.713 1.164l1.717-2.46zm-1.23-.858l-.859 1.23 2.46 1.716.859-1.23-2.46-1.716zm-2.094.935a7.963 7.963 0 012.466 1.153l1.716-2.46a10.964 10.964 0 00-3.395-1.588l-.787 2.895zM19.863 10.75v12.083h3V10.75h-3z" fill="#00F" mask="url(#a)"/><mask id="b" fill="#fff"><path fill-rule="evenodd" clip-rule="evenodd" d="M33.863 8h-5v11.25l-8.167 17.502H42.03L33.863 19.25V8zm8.75 30v.002h-22.5v3.749h22.5V38z"/></mask><path fill-rule="evenodd" clip-rule="evenodd" d="M33.863 8h-5v11.25l-8.167 17.502H42.03L33.863 19.25V8zm8.75 30v.002h-22.5v3.749h22.5V38z" fill="#fff"/><path d="M28.863 8V7h-1v1h1zm5 0h1V7h-1v1zm-5 11.25l.906.423.094-.2v-.223h-1zm-8.167 17.502l-.907-.423-.664 1.423h1.57v-1zm21.335 0v1h1.57l-.664-1.423-.906.423zM33.863 19.25h-1v.222l.094.201.906-.423zM42.613 38l.906-.423-1.906.423h1zm0 .002v1h1v-1h-1zm-22.5 0v-1h-1v1h1zm0 3.749h-1v1h1v-1zm22.5 0v1h1v-1h-1zm0-3.75h1v-.222l-.094-.202-.906.424zM28.863 9h5V7h-5v2zm1 10.25V8h-2v11.25h2zm-8.261 17.925l8.167-17.502-1.812-.846-8.168 17.502 1.813.846zm-.906.577H42.03v-2H20.696v2zm12.261-18.079l8.167 17.502 1.813-.846-8.168-17.502-1.812.846zM32.863 8v11.25h2V8h-2zm8.75 30v.002h2V38h-2zm1-.998h-22.5v2h22.5v-2zm-21.5 4.749v-3.749h-2v3.749h2zm21.5-1h-22.5v2h22.5v-2zm-1-2.75v3.75h2V38h-2zm.094.423l1.812-.847-1.812.847z" fill="#DF0112" mask="url(#b)"/><mask id="c" fill="#fff"><path fill-rule="evenodd" clip-rule="evenodd" d="M33.863 8h-5v11.25l-8.167 17.502H42.03L33.863 19.25V8zm8.75 30v.002h-22.5v3.749h22.5V38z"/></mask><path fill-rule="evenodd" clip-rule="evenodd" d="M33.863 8h-5v11.25l-8.167 17.502H42.03L33.863 19.25V8zm8.75 30v.002h-22.5v3.749h22.5V38z" fill="#fff"/><path d="M28.863 8V6.5h-1.5V8h1.5zm5 0h1.5V6.5h-1.5V8zm-5 11.25l1.36.635.14-.302v-.333h-1.5zm-8.167 17.502l-1.36-.634-.996 2.134h2.356v-1.5zm21.335 0v1.5h2.355l-.996-2.134-1.36.634zM33.863 19.25h-1.5v.333l.14.302 1.36-.635zM42.613 38l1.359-.635-2.859.635h1.5zm0 .002v1.5h1.5v-1.5h-1.5zm-22.5 0v-1.5h-1.5v1.5h1.5zm0 3.749h-1.5v1.5h1.5v-1.5zm22.5 0v1.5h1.5v-1.5h-1.5zm0-3.75h1.5v-.334l-.14-.301-1.36.635zM28.863 9.5h5v-3h-5v3zm1.5 9.75V8h-3v11.25h3zm-8.308 18.136l8.167-17.501-2.718-1.269-8.168 17.502 2.719 1.268zm-1.36.866h21.336v-3H20.696v3zm11.809-18.367l8.167 17.501 2.719-1.268-8.168-17.502-2.718 1.269zM32.364 8v11.25h3V8h-3zm8.75 30v.002h3V38h-3zm1.5-1.498H20.112v3h22.5v-3zm-21.001 5.249v-3.749h-3v3.749h3zm21-1.5h-22.5v3h22.5v-3zm-1.5-2.25v3.75h3V38h-3zm.141.635l2.718-1.27-2.718 1.27z" fill="#DF0112" mask="url(#c)"/></svg>
